X:6
T:An dro
R:an dro
D:Skolvan
O:Bretagne
Z:id:hn-an dro-6
M:2/4
L:1/16
K:Am
E2AG A3B | c2Ac B3A | EAAG A3B | ccAc B3B :|
c2e2 c3e | e2dc B3G |: E2AG A3B | c2Ac B3G | E2AB d3c | A2GB A4 :|

